build/img/icons/cashback.svg

<svg width="48" height="48" viewBox="0 0 48 48" fill="none" xmlns="http://www.w3.org/2000/svg">
<circle cx="24" cy="24" r="24" fill="white"/>
<path d="M34.5625 16.8906H28.6719V15.0625C28.6723 14.3749 28.4889 13.6996 28.1407 13.1067C27.7924 12.5137 27.2919 12.0247 26.6911 11.6902C26.0903 11.3557 25.411 11.1879 24.7236 11.2042C24.0361 11.2205 23.3655 11.4203 22.7812 11.7829C22.197 11.4203 21.5264 11.2205 20.8389 11.2042C20.1515 11.1879 19.4722 11.3557 18.8714 11.6902C18.2706 12.0247 17.7701 12.5137 17.4218 13.1067C17.0736 13.6996 16.8902 14.3749 16.8906 15.0625V16.8906H12.625C12.4634 16.8906 12.3084 16.9548 12.1941 17.0691C12.0798 17.1834 12.0156 17.3384 12.0156 17.5V36.1875C12.0156 36.3491 12.0798 36.5041 12.1941 36.6184C12.3084 36.7327 12.4634 36.7969 12.625 36.7969H28.0625C28.0858 36.7968 28.109 36.7953 28.1322 36.7926C28.1382 36.7919 28.1441 36.7907 28.1501 36.7899C28.1676 36.7873 28.1848 36.7842 28.2018 36.7803C28.2046 36.7796 28.2075 36.7794 28.2103 36.7787L31.3125 36.0031L34.4147 36.7787C34.7841 36.8818 35.1823 36.572 35.1719 36.1875V17.5C35.1719 17.42 35.1561 17.3407 35.1255 17.2668C35.0949 17.1929 35.05 17.1257 34.9934 17.0691C34.9368 17.0125 34.8696 16.9676 34.7957 16.937C34.7218 16.9064 34.6425 16.8906 34.5625 16.8906ZM27.4531 15.0625V16.8906H24.6094V15.0625C24.61 14.1821 24.3082 13.3282 23.7544 12.6438C24.1562 12.4677 24.5956 12.3946 25.0328 12.431C25.4699 12.4673 25.8912 12.6121 26.2583 12.8522C26.6255 13.0923 26.927 13.4201 27.1356 13.8061C27.3442 14.192 27.4534 14.6238 27.4531 15.0625ZM22.7812 13.3773C23.1755 13.8503 23.3912 14.4467 23.3906 15.0625V16.8906H22.1719V15.0625C22.1713 14.4467 22.387 13.8503 22.7812 13.3773ZM18.1094 15.0625C18.1091 14.6238 18.2183 14.192 18.4269 13.8061C18.6355 13.4201 18.937 13.0923 19.3042 12.8522C19.6713 12.6121 20.0926 12.4673 20.5297 12.431C20.9669 12.3946 21.4063 12.4677 21.8081 12.6438C21.2543 13.3282 20.9525 14.1821 20.9531 15.0625V16.8906H18.1094V15.0625ZM13.2344 35.5781V18.1094H16.8906V21.5625C16.8906 21.7241 16.9548 21.8791 17.0691 21.9934C17.1834 22.1077 17.3384 22.1719 17.5 22.1719C17.6616 22.1719 17.8166 22.1077 17.9309 21.9934C18.0452 21.8791 18.1094 21.7241 18.1094 21.5625V18.1094H23.3906V21.5625C23.3906 21.7241 23.4548 21.8791 23.5691 21.9934C23.6834 22.1077 23.8384 22.1719 24 22.1719C24.1616 22.1719 24.3166 22.1077 24.4309 21.9934C24.5452 21.8791 24.6094 21.7241 24.6094 21.5625V18.1094H27.4531V35.5781H13.2344ZM33.9531 35.407L31.4603 34.7838C31.3632 34.7596 31.2618 34.7596 31.1647 34.7838L28.6719 35.407V18.1094H30.7031V21.5625C30.7031 21.7241 30.7673 21.8791 30.8816 21.9934C30.9959 22.1077 31.1509 22.1719 31.3125 22.1719C31.4741 22.1719 31.6291 22.1077 31.7434 21.9934C31.8577 21.8791 31.9219 21.7241 31.9219 21.5625V18.1094H33.9531V35.407Z" fill="#201D54"/>
<path d="M31.3125 25.0156C31.1509 25.0156 30.9959 25.0798 30.8816 25.1941C30.7673 25.3084 30.7031 25.4634 30.7031 25.625V32.9375C30.7031 33.0991 30.7673 33.2541 30.8816 33.3684C30.9959 33.4827 31.1509 33.5469 31.3125 33.5469C31.4741 33.5469 31.6291 33.4827 31.7434 33.3684C31.8577 33.2541 31.9219 33.0991 31.9219 32.9375V25.625C31.9219 25.4634 31.8577 25.3084 31.7434 25.1941C31.6291 25.0798 31.4741 25.0156 31.3125 25.0156Z" fill="#201D54"/>
<path d="M24.3816 23.5693L16.2566 31.6943C15.6893 32.2454 16.5677 33.1232 17.1184 32.556L25.2434 24.431C25.3561 24.3164 25.419 24.1619 25.4184 24.0012C25.4177 23.8404 25.3536 23.6864 25.2399 23.5728C25.1262 23.4591 24.9722 23.3949 24.8115 23.3943C24.6507 23.3936 24.4962 23.4565 24.3816 23.5693Z" fill="#201D54"/>
<path d="M23.1875 28.2656C22.7456 28.2656 22.3136 28.3967 21.9461 28.6422C21.5787 28.8877 21.2923 29.2367 21.1232 29.6449C20.9541 30.0532 20.9098 30.5025 20.9961 30.9359C21.0823 31.3693 21.2951 31.7675 21.6076 32.0799C21.92 32.3924 22.3182 32.6052 22.7516 32.6914C23.185 32.7777 23.6343 32.7334 24.0426 32.5643C24.4508 32.3952 24.7998 32.1088 25.0453 31.7414C25.2908 31.3739 25.4219 30.9419 25.4219 30.5C25.4212 29.9076 25.1856 29.3397 24.7667 28.9208C24.3478 28.5019 23.7799 28.2663 23.1875 28.2656ZM23.1875 31.5156C22.9866 31.5156 22.7903 31.4561 22.6233 31.3445C22.4562 31.2329 22.3261 31.0742 22.2492 30.8887C22.1723 30.7031 22.1522 30.4989 22.1914 30.3019C22.2306 30.1049 22.3273 29.9239 22.4693 29.7818C22.6114 29.6398 22.7924 29.5431 22.9894 29.5039C23.1864 29.4647 23.3906 29.4848 23.5762 29.5617C23.7617 29.6386 23.9204 29.7687 24.032 29.9357C24.1436 30.1028 24.2031 30.2991 24.2031 30.5C24.2028 30.7693 24.0957 31.0274 23.9053 31.2178C23.7149 31.4082 23.4568 31.5153 23.1875 31.5156Z" fill="#201D54"/>
<path d="M18.3125 27.8594C18.7544 27.8594 19.1864 27.7283 19.5539 27.4828C19.9213 27.2373 20.2077 26.8883 20.3768 26.4801C20.5459 26.0718 20.5902 25.6225 20.5039 25.1891C20.4177 24.7557 20.2049 24.3575 19.8924 24.0451C19.58 23.7326 19.1818 23.5198 18.7484 23.4336C18.315 23.3473 17.8657 23.3916 17.4574 23.5607C17.0492 23.7298 16.7002 24.0162 16.4547 24.3836C16.2092 24.7511 16.0781 25.1831 16.0781 25.625C16.0788 26.2174 16.3144 26.7853 16.7333 27.2042C17.1522 27.6231 17.7201 27.8587 18.3125 27.8594ZM18.3125 24.6094C18.5134 24.6094 18.7097 24.6689 18.8768 24.7805C19.0438 24.8921 19.1739 25.0508 19.2508 25.2363C19.3277 25.4219 19.3478 25.6261 19.3086 25.8231C19.2694 26.0202 19.1727 26.2011 19.0307 26.3432C18.8886 26.4852 18.7077 26.5819 18.5106 26.6211C18.3136 26.6603 18.1094 26.6402 17.9238 26.5633C17.7383 26.4864 17.5796 26.3563 17.468 26.1893C17.3564 26.0222 17.2969 25.8259 17.2969 25.625C17.2972 25.3557 17.4043 25.0976 17.5947 24.9072C17.7851 24.7168 18.0432 24.6097 18.3125 24.6094Z" fill="#201D54"/>
</svg>

<svg width="48" height="48" fill="none" xmlns="http://www.w3.org/2000/svg"><circle cx="24" cy="24" r="24" fill="#fff"/><path d="M34.563 16.89h-5.891v-1.828a3.858 3.858 0 00-5.89-3.28 3.856 3.856 0 00-5.891 3.28v1.829h-4.266a.61.61 0 00-.61.609v18.688a.61.61 0 00.61.609h15.438a.625.625 0 00.07-.004l.017-.003a.673.673 0 00.052-.01l.008-.001 3.102-.776 3.103.776c.37.103.767-.207.757-.592V17.5a.61.61 0 00-.61-.61zm-7.11-1.828v1.829H24.61v-1.828a3.84 3.84 0 00-.855-2.42 2.64 2.64 0 013.7 2.42zm-4.672-1.685c.395.473.61 1.07.61 1.685v1.829h-1.22v-1.828c0-.616.216-1.213.61-1.686zm-4.672 1.685a2.638 2.638 0 013.7-2.418 3.84 3.84 0 00-.856 2.418v1.829H18.11v-1.828zm-4.875 20.516V18.11h3.657v3.453a.61.61 0 001.218 0V18.11h5.282v3.453a.61.61 0 001.218 0V18.11h2.844v17.47H13.234zm20.72-.171l-2.494-.623a.61.61 0 00-.295 0l-2.493.623V18.109h2.031v3.453a.61.61 0 001.219 0V18.11h2.031v17.298z" fill="#201D54"/><path d="M31.313 25.016a.61.61 0 00-.61.609v7.313a.61.61 0 001.219 0v-7.313a.61.61 0 00-.61-.61zm-6.931-1.446l-8.125 8.124c-.568.551.31 1.43.861.862l8.125-8.125a.61.61 0 00-.861-.862zm-1.194 4.696a2.235 2.235 0 100 4.47 2.235 2.235 0 000-4.47zm0 3.25a1.015 1.015 0 110-2.03 1.015 1.015 0 010 2.03zm-4.875-3.656a2.235 2.235 0 100-4.47 2.235 2.235 0 000 4.47zm0-3.25a1.016 1.016 0 110 2.031 1.016 1.016 0 010-2.032z" fill="#201D54"/></svg>
